src/lib/packages/icons/src/assets/line/volume-times.svg

<svg width="24" height="24" viewBox="0 0 24 24" fill="none" xmlns="http://www.w3.org/2000/svg">
<path d="M12.348 2.47811C11.483 2.07711 10.495 2.20999 9.76697 2.82699L6.07605 5.95419C5.85005 6.14519 5.56297 6.25009 5.26697 6.25009H3.5C2.26 6.25009 1.25 7.25909 1.25 8.50009V15.4991C1.25 16.7401 2.26 17.7491 3.5 17.7491H5.26697C5.56297 17.7491 5.84995 17.854 6.07495 18.045L9.76599 21.1722C10.215 21.5532 10.765 21.7501 11.324 21.7501C11.67 21.7501 12.018 21.6751 12.348 21.5211C13.213 21.1201 13.75 20.279 13.75 19.325V4.67221C13.75 3.72021 13.213 2.87811 12.348 2.47811ZM12.25 19.327C12.25 19.695 12.051 20.0072 11.717 20.1622C11.383 20.3182 11.016 20.2661 10.736 20.0291L7.04504 16.9022C6.54904 16.4822 5.91794 16.2501 5.26794 16.2501H3.50098C3.08798 16.2501 2.75098 15.9141 2.75098 15.5001V8.50106C2.75098 8.08706 3.08798 7.75106 3.50098 7.75106H5.26794C5.91794 7.75106 6.54904 7.52021 7.04504 7.09921L10.7371 3.97201C11.0151 3.73401 11.383 3.6842 11.717 3.8392C12.051 3.9942 12.25 4.30616 12.25 4.67416V19.327ZM22.53 13.4701C22.823 13.7631 22.823 14.2381 22.53 14.5311C22.384 14.6771 22.192 14.7511 22 14.7511C21.808 14.7511 21.616 14.6781 21.47 14.5311L20 13.0611L18.53 14.5311C18.384 14.6771 18.192 14.7511 18 14.7511C17.808 14.7511 17.616 14.6781 17.47 14.5311C17.177 14.2381 17.177 13.7631 17.47 13.4701L18.9399 12.0001L17.47 10.5301C17.177 10.2371 17.177 9.76208 17.47 9.46908C17.763 9.17608 18.238 9.17608 18.531 9.46908L20.001 10.9391L21.4709 9.46908C21.7639 9.17608 22.239 9.17608 22.532 9.46908C22.825 9.76208 22.825 10.2371 22.532 10.5301L21.062 12.0001L22.53 13.4701Z" fill="currentColor"/>
</svg>

<svg xmlns="http://www.w3.org/2000/svg" width="24" height="24" fill="none"><path fill="currentColor" d="M12.348 2.478a2.394 2.394 0 0 0-2.581.349l-3.69 3.127a1.254 1.254 0 0 1-.81.296H3.5A2.253 2.253 0 0 0 1.25 8.5v7c0 1.24 1.01 2.25 2.25 2.25h1.767c.296 0 .583.104.808.295l3.691 3.127a2.401 2.401 0 0 0 2.582.35 2.397 2.397 0 0 0 1.402-2.197V4.672c0-.952-.537-1.794-1.402-2.194Zm-.098 16.849a.9.9 0 0 1-.533.835.898.898 0 0 1-.981-.133l-3.691-3.127a2.754 2.754 0 0 0-1.777-.652H3.5a.75.75 0 0 1-.75-.75V8.501a.75.75 0 0 1 .75-.75h1.767c.65 0 1.281-.23 1.777-.652l3.692-3.127a.896.896 0 0 1 .98-.133.9.9 0 0 1 .533.835v14.653Zm10.28-5.857a.75.75 0 0 1-1.06 1.061L20 13.061l-1.47 1.47a.748.748 0 0 1-1.06 0 .75.75 0 0 1 0-1.06L18.94 12l-1.47-1.47a.75.75 0 1 1 1.061-1.062l1.47 1.47 1.47-1.47a.75.75 0 0 1 1.061 1.061L21.062 12l1.468 1.47Z"/></svg>
